X: 923
T: the Wily Old Bachelor   #2
R: hornpipe
%S: s:2 b:12(6+6)
B: Francis O'Neill: "The Dance Music of Ireland" (1907) #923
Z: Frank Nordberg - http://www.musicaviva.com
F: http://www.musicaviva.com/abc/tunes/ireland/oneill-1001/0923/oneill-1001-0923-1.abc
N: Compacted via repeats and multiple endings [JC]
M: C|
L: 1/8
K: G
"^A"[|] (DC) \
|: B,DGA BGDB, | CEAB cAFD |[1,3 B,DGA BGc>A | (3ABG (3FGE (3DEC (3B,DA, :|[2,4 B,DGB ADEF | G2B2G2 :|
"^B"|: (ga) |: bgeg dgBg |[1 dgBg dgBg :|[2 fgab a2 :|[3 cBAB cdef | gdBG EcAF | G2B2G2 :|
